X:1
T:An die Musik - Schubert
T:James Gibb editions
%%score 1 { ( 2 4 ) | 3 }
L:1/8
Q:1/4=80
M:2/2
K:D
V:1 bass nm="Midi_43"
V:2 treble nm="Midi_1"
V:4 treble 
V:3 bass 
V:1
"^Etwas bewegt""^Franz von Schober\n(1796-1882)" z8"^An die Musik" | z8 |: %2
w: ||
w: ||
 z2 A,2 D2"^Franz Schubert\n(1797-1828)" D2 | F,6 B,2 |{B,} D,3 D, (F,E,) (D,E,) | %5
w: Du hol- de|Kunst, in|wie viel grau\- * en *|
w: Oft hat ein|Seuf- zer,|dei- ner Harf' * ent\- *|
[M:2/2] F,2 D,2 z4 | z2 A,2 B,2 B,2 | C,3 C, D,3 D, | (F,E,) (D,E,) F,4 | z8 | z2 D2 E3 G, | %11
w: Stun- den,|wo moch des|Le- bens wil- der|Kreis * um\- * strickt,||hast du mein|
w: flos- sen,|ein sӮ- sser|hei- li- ger Ac-|cord * von * dir,||den Him- mel|
 (F,2 A,4) C2 | D3 F (EC) (A, G,) |{G,} F,2 F,2 z2 A,2 | B,3 B, (B,2 C)D | D3 D F3 E | %16
w: Herz * zu|war- mer Lieb' * ent\- *|zun- den, hast|mich in ei\- * ne|bess'- re Welt ent-|
w: bess'\- * rer|Zei- ten mir * er\- *|schlo- ssen; du|hol- de Kunst, * ich|dan- ke dir da-|
{E} D4 z B,CD | (D2 F,)F, (A,2 C,)C, | D,4 z4 |[M:2/2] z8 | z8 | z8 :| %22
w: rӮckt, in ei- ne|bess'\- * re Welt * ent-|rӮckt!||||
w: fӮr, du hol- de|Kunst, * ich dan\- * ke|dir.||||
[Q:1/4=78] z8[Q:1/4=75][Q:1/4=72][Q:1/4=69][Q:1/4=68] |] %23
w: |
w: |
V:2
!p! [A,DF][A,DF][A,DF][A,DF] [A,DF][A,DF][A,DF][A,DF] | %1
 [A,DA][A,DA][A,DA][A,DA] [A,DG][A,DG] [G,A,CE][G,A,CE] |: %2
 [F,A,D][A,DF][A,DF][A,DF] [A,DF][A,DF][A,DF][A,DF] | %3
 [A,DF][A,DF][A,DF][A,DF] [F,DF][F,DF][^G,DF][G,DF] | z [A,DF][A,DF][A,DF] z [A,CG][A,CG][A,CG] | %5
[M:2/2] z [A,DF][A,DF][A,DF] [A,DF][A,DF][A,DF][A,DF] | %6
 [A,DF][A,DF][A,DF][A,DF] [B,DB][B,DB][B,DB][B,DB] | %7
 z[K:bass] [E,G,C][E,G,C][E,G,C] z [D,F,D][D,F,D][D,F,D] | %8
 z [G,A,E][G,A,E][G,A,E] z [F,A,F][F,A,F][F,A,F] | %9
[K:treble] [A,CE][A,CE][A,CA][A,CA] [B,DA][B,DA][CEA][CEA] | %10
 [DFA][DFA][DFA][DFA] [EGA][EGA][EGA][EGA] | [DFA][DFA][A,CA][A,CA] [B,DA][B,DA][CEA][CEA] | %12
 [DFA][DFA][DFA][DFA] [EGA][EGA][EGA][EGA] | z [A,DF][A,DF][A,DF] [A,CG][A,CG][=CDA][CDA] | %14
 z [B,DB][B,DB][B,DB] z [D=FB][DFB][DFB] | z [D^FA][DFA][DFA] z [EFc][EGc][EGc] | %16
 z [DFd][DFd][DFd] z [D=FB][DFB][DFB] | z [D!courtesy!^FA][DFA][DFA] z [G,A,C][G,A,C][G,A,C] | %18
 [F,A,D] .[DFd].[DFd].[DFd] .[DFd].[DFd]([EGc][FAd]) | ([Ac][GB])[DGB][DGB] [DGB][DGB][DGB][EGB] | %20
 ([GB][A,FA]).[A,FA].[A,FA] [A,FA][A,FA][CFA][DFA] | %21
 ([^DFA][EG]).[B,EG].[B,EG] (!>![CEG][G,A,CE]).[G,A,CE].[G,A,CE] :| %22
 [G,A,CE][F,A,D][F,A,D][F,A,D] [F,A,D]2 z2 |] %23
V:3
 z2!mp!!p! (A,,2 D,2) .D,2 | F,,4 .A,,2 .A,,,2 |: D,,2 z2 z4 | z2 (F,,2 B,,2) .B,,2 | %4
 A,,2 z2 A,,2 z2 |[M:2/2] D,2 (A,,2 D,2) .D,2 | (F,,4 G,,4) | (A,,2 ^A,,2 B,,4) | %8
 [C,,C,]4 [D,,D,]4 | (A,,2 A,2 ^G,2 =G,2) | (F,2 D,2 C,2 A,,2) | (D,2 A,,A, ^G,2 =G,2) | %12
 (F,2 D,2 C,3 B,,) | (D,4"^cresc." E,2 F,2) | (G,4 ^G,4) | (A,4 ^A,4) | (B,4 ^G,4) | A,4 A,,4 | %18
 D,2 z2 z4 | !>![G,,,G,,]4 z .G,,.B,,.C, | !>!D,4 z .D,.E,.F, | !>![G,,G,]2 z2 A,,2 z2 :| %22
 [D,,D,]6 z2 |] %23
V:4
 x8 | x8 |: x8 | x8 | x8 |[M:2/2] x8 | x8 | x[K:bass] x7 | x8 |[K:treble] x8 | x8 | x8 | x8 | x8 | %14
 x8 | x8 | x8 | x8 | x8 | D2 x2 x4 | x4 x4 | B,2 x6 :| x8 |] %23

